X: 33013
T: Price Of A Pig, The
R: jig
M: 6/8
K: Adorian
ede AAA|BAB GBd|eee edB|def gfg|
ede AAA|BAB GBd|eee ede|BAA A3:|
efg aAa|efg aAa|g2 e edB|def gfg|
ede AAA|BAB GBd|eee ede|BAA A3:|

